X: 1210
T: Alan Offa's Schottische
B: australian traditional tunes wiki
M:4/4
L:1/8
R: Schottische
Q: 1/4=100
K:D
V:1 
F>G|"D"A>F D>F A>F D>F|"D"A<d "A"c2E2F2|"G"G>F E>F"Em" G>F E>A|"A7"B2A2"D"F2G2|
"D"A>F D>F A>F D>F|"D"A<d"A"c2E2d2|"G"e>d c>d "A7"c>A (3GBc|"D"d2"A7"d2"D"d2F>G|
"D"A2f2"A7"A2e2|"D"A2d>c d>A F>D|"A7"A2c2c>A (3GBc|"D"d2"G"B2"A7"A2F>G|
"D"A2f2"A7"A2e2|"D"A2d>c d>A F>D|"A7"E2c2c>A (3GBc|"D"d2"A7"d2 "D"d2||
% abcbook-tune_id 6342d53afacdd74ba785f159


% abcbook-boost 0
% abcbook-tablature 
% abcbook-transpose 
% abcbook-lastupdated 1665324354374
% abcbook-soundfonts 
% abcbook-repeats 1
% NFF Book 2015

